X:255
T: ALLEMAL KANN MAN NIT LUSTIG SEYN
N: Z0254
O: Europa, Mitteleuropa, Deutschland, Schwaben
R: lyrisches Lied, Romanze
M: 6/8
L: 1/16
K: A
A3AA2c3BA2 | e3EE2z6 |
A3AA2c3BA2 | e6z6 |
d3ef2f2e2d2 | c2cde2B2Bcd2 |
A2A2A2G2F2G2 | A4z8 |
d3ef2f2e2d2 | c2cde2B2Bcd2 |
A2A2A2G2F2G2 | A4z8

@@@ Tune index: 10013
